!!!OTL: ICH HATT MAL EINEN SCHWEREN STAND
!!!ARE: Europa, Mitteleuropa, Deutschland
!!!SCT: F0033
!!!YEM: Copyright 1995, estate of Helmut Schaffrath.
**kern
*ICvox
*Ivox
*M4/4
*k[b-e-]
*B-:
{8f
=1
8f
8d
8d
8f
8f
8d
8d
8r
=2
2b-
4f
8r}
{8f
=3
8e-
8c
8c
8e-
8e-
8c
8c
8r
=4
2cc
4e-
8r}
{8e-
=5
8d
8f
8f
8b-
4.b-
8dd
=6
8.cc
16b-
8.cc
16dd
4.cc}
{8f
=7
8f
8a
8a
8cc
4.cc
8ee-
=8
8.dd
16cc
8.dd
16ee-
4dd
8r}
{8ff
=9
8.ff
16ee-
8dd
8dd
8ee-
8cc
8cc
8cc
=10
2cc
4.r}
{8cc
=11
8.dd
16cc
8b-
8b-
8cc
8cc
8cc
8dd
=12
2b-
4r
8r}
==
!!!AGN: Liebes - Lied, Scherz
!!!ONB: ESAC (Essen Associative Code) Database: FINK
!!!AMT: simple quadruple
!!!AIN: vox
!!!EED: Helmut Schaffrath
!!!EEV: 1.0
*-
